X:1
T:Title
%%score { ( 1 3 ) | ( 2 4 ) }
L:1/8
Q:1/4=100
M:4/4
K:D
V:1 treble nm="Grand Piano"
V:3 treble 
V:2 bass 
V:4 bass 
V:1
 F2 FF F2 F2 | [EA]4 [EA]4 | D2 DD D2 D2 | [DF]6 z2 | B2 BB A2 A2 | G4 z4 | E2 EE [DE]2 [DE]2 | %7
w: Charles~H.~Gabriel * * * *|||||||
 [CE]6 z2 | F2 FF F2 F2 | [EA]4 [EA]4 | [Fd]2 [Fd][Fd] [Fc]2 [Fc]2 | B4 A4 | G2 GG F2 F2 | E4 B4 | %14
w: |||||||
 A2 FF[K:bass] [A,DE]2 [G,CE]2 | [F,D]6 z2 | [A,DF]2 [A,DF][A,DF] [A,DF]2 [A,=CF]2 | z4 E2 z2 | %18
w: ||||
 G2[K:bass] A,,2[K:treble] G2 ^G2 | A2 A2 [GA]4 | [Fd]2 [Fd][Fd] c2 c2 | B4 z4 | %22
w: ||||
 F2 F2 [DE]2 [CE]2 | D6 z2 |] %24
w: ||
V:2
 [D,A,D]2 [D,A,D][D,A,D] [D,A,D]2 [D,A,D]2 | [C,A,]4 [C,G,]4 | %2
 [B,,F,]2 [B,,F,][B,,F,] [B,,F,]2 [B,,F,]2 | [A,,A,]6 z2 | [G,D]2 [G,D][G,D] [F,A,D]2 [F,A,D]2 | %5
 B,2 z2 z4 | [C,A,]2 [C,A,][C,A,] [B,,^G,]2 [B,,G,]2 | [A,,A,]6 z2 | %8
 [D,A,D]2 [D,A,D][D,A,D] [D,A,D]2 [D,A,D]2 | [C,A,]4 [C,A,]4 | %10
 [B,,A,]2 [B,,A,][B,,A,] [C,^A,]2 [C,A,]2 | [D,B,]4 [^D,=C]4 | %12
 [E,B,E]2 [E,B,E][E,B,E] [F,B,^D]2 [F,B,D]2 | [G,B,]4[K:treble] [^G,D=F]4 | %14
 [A,DF]2[K:bass] [A,D][A,D] A,,2 A,,2 | D,6 z2 | D,2 A,,A,, D,2 ^D,2 | E,2 A,,2 C,2 D,2 | %18
 [E,A,C]2 z2 [E,A,C]2 [=F,B,D]2 | [A,D]2 z2 z4 | [D,A,]2 [B,,B,][B,,B,] [F,^A,E]2 [F,A,E]2 | %21
 [B,D]2 z2 z4 | [A,D]2 [A,D]2 [A,,A,]2 [A,,G,]2 | [D,F,]6 z2 |] %24
V:3
 x8 | x8 | x8 | x8 | x8 | z2 C2 F4 | x8 | x8 | x8 | x8 | x8 | F8 | x8 | x8 | x4[K:bass] x4 | x8 | %16
 x8 | [A,B,G]4 [A,G]2- [A,B,G]2 | x2[K:bass] x2[K:treble] x4 | x8 | x8 | z2 E2 A2 G2 | x8 | x8 |] %24
V:4
 x8 | x8 | x8 | x8 | x8 | [E,A,]4 [D,A,D]4 | x8 | x8 | x8 | x8 | x8 | x8 | x8 | x4[K:treble] x4 | %14
 x2[K:bass] x6 | x8 | x8 | x8 | x8 | F,2- [F,A,D]2 [E,C]4 | x8 | G,2- [G,C]2 [F,D]2 [G,B,]2 | x8 | %23
 x8 |] %24

